X: 1
T: Fahey's
M: 4/4
L: 1/8
R: reel
K: Cmaj
|:GF|(3EFG CD EFGA|~_B3G c=Bcd|ecBd cBGF|DEB,D G,DGE|
F2EC DEFD|GABG cBcd|ecBd cBGF|DEB,D C2:|
EF|Gc~c2 (3efg de|cBGA _B2GF|DCB,G, _BCEG|c3A BGFD|
Gc~c2 (3efg de|cBGA Bcdf|ecBd cBGF|DEB,D C2||
